X:1
T:Merry Christmas Mr. Lawrence
T:Merry Christmas Mr. Lawrence
T:Ryuichi Sakamoto
C:Ryuichi Sakamoto
%%score { ( 1 3 ) | 2 }
L:1/8
Q:1/4=105
M:12/8
K:Db
V:1 treble nm="Piano" snm="Pno."
V:3 treble 
V:2 treble 
V:1
!mp! (fef bfe fef bfe | fef afe fef afe | ede aed ede aed | ede aed cBc fcB) | (fef bfe fef bfe | %5
 fef afe fef afe | ede c'ed aed c'ed | ede c'ed aed c'ed) | %8
!8va(! (f'e'f' [bb']f'e' f'e'f' [bb']f'e' | f'e'f' [aa']f'e' f'e'f' [aa']f'e' | %10
 e'd'e' [aa']e'd' e'd'e' [aa']e'd' | e'd'e' [aa']e'd' c'bc' [ff']c'b) | %12
 (f'e'f' [bb']f'e' f'e'f' [bb']f'e' | f'e'f' [aa']f'e' f'e'f' [aa']f'e' | %14
 e'd'e' [c'c'']e'd' [aa']e'd' [c'c'']e'd' | e'd'e' [c'c'']e'd' [aa']e'd' [c'c''])e'd'!8va)! | %16
[M:4/4]!mf! ([B,E]FEB, E4) | B,2 (EF EFAF | EFEB, D4) | z2 ([DFd]2 cA [CF]2) | ([B,E]FEB, E4) | %21
 B,2 (EF EFAF | EFED B,4- | B,4) z4 | ([Be]feB [Be]4) | z2 ([Be][cf] [Be][cf][ea][cf] | %26
 [Be][cf][Be][FB] [Ad]4) | z2 ([dfd']2 c'a [cf]2) | ([Be]feB [Be]4) | %29
 z2 ([Be][cf] [Be][cf][ea][cf] | [Be][cf][Be]d [FB]4- | [FB]4) C2 D2 | %32
 ([_CGB]AB[CGA]- [CEGA] [CGB]2 [CGB] | CAB[_CGA]- [CGA][CGB]AG) | %34
 [G,DF]EF[G,DE-] [B,E] [G,DF]2 [G,DF] | G,EF[G,DE]- [G,DE]2 FG | %36
 ([_CGB]AB[CGA]- [CEGA] [CGB]2 [CGB] | CAB[_CGA]- [CGA][CGB]AG) |!<(! ([B,F]EFB- B F2 [=A,=DF] | %39
 =DEF=A-!<)! A4) |!f!!8va(! ([be']f'e'b [be']4) | z2 ([be'][c'f'] [be'][c'f'][e'a'][c'f'] | %42
 [be'][c'f'][be']b [ad']4) | z2 ([d'f'd'']2 c''a' [c'f']2) | ([be']f'e'b [be']4) | %45
 z2 ([be'][c'f'] [be'][c'f'][e'a'][c'f'] | [be'][c'f'][be']d' [fb]4)!8va)! | (e'c'd'f ecdc') | %48
 ([Be]feB [Be]4) | z2 ([Be][cf] [Be][cf][ea][cf] | [Be][cf][Be]B [Ad]4) | z2 ([dfd']2 c'a [cf]2) | %52
 ([=Ge]f[Ge]B [Ge]2 G_G | F) z (ef efaf | efed [=GB]3 d | [C=GB]3 A A2) [CF]E | [B,DF]FFF FFFF | %57
 [A,B,DF]FFF [A,CE]EEE | [A,CE]EEE EE ED/D/ | [F,B,D]DDD [F,B,D]2 [A,CE]2 | [B,DF]FFF FFFF | %61
 [A,B,DF]FFF [A,CE]2 [DGB]2 | [CFA]AAA AA [EGc]2 | [FAc]ccc [FAd]2 [GAe]2 | ([Be]feB [Be]4) | %65
 z2 ([Be][cf] [Be][cf][ea][cf] | [Be][cf][Be]B [Ad]4) | z2 ([dfd']2 c'a [cf]2) | ([Be]feB [Be]4) | %69
 z2 (ef efaf | efeB [Ad]4) |!8va(! z2 [dbd']2 [dfd']2 [egc'e']2 | ([be']f'e'b [be']4) | %73
 z2 ([be'][c'f'] [be'][c'f'][e'a'][c'f'] | [be'][c'f'][be']b [ad']4) | %75
 z2 ([d'f'd'']2 c''a' [c'f']2) | ([be']f'e'b [be']4) | z2 ([be'][c'f'] [be'][c'f'][e'a'][c'f'] | %78
 [be'][c'f'][be']d' [fb]2- [fb]/)(c'/d'/=d'/ | e'c'd'f ecdc')!8va)! |!>(! ([Be]feB [Be]4) | %81
 z2 ([Be][cf] [Be][cf][ea][cf] | [Be][cf][Be]B [Ad]4)!>)! | z2 ([dfd']2 c'a [cf]2) | %84
 ([Be]feB [Fe]4) | z2 ([Be][cf] [Be][cf][ea][cf] | [Be]fed [=GB]3 d |[Q:1/4=95] [CGB]3 A A2 [CF]E | %88
[Q:1/4=80] [DF]4) B,4 |{/B,=B,} C4{/E=D_D} C4 |{/B} f4 [FB]4 |{/B=B} [Fc]4{/e=d_d} c2 F2 | %92
!8va(!{/fbd'} f'4 [fb]4 |{/b=b} [fc']4[Q:1/4=70]{/e'=d'_d'} c'2 f2 | %94
[Q:1/4=60] !///![f'f'']4{/f'b'} f''4!8va)! |] %95
V:2
 [GAd]12 | [GABc]12 | [FAB]12 | [B,FA]6 [A,CDF]6 | [GAd]12 | [GABc]12 | [FABc]12 | [B,FA]12 | %8
 [GAdf]12 | [GAcf]12 | [FABce]12 | [Bcdf]6 [Bcdf]6 | [GAdf]12 | [GAcf]12 | [FABce]12 | [Bcdf]12 | %16
[M:4/4][K:bass]!ped! [G,,D,]8!ped-up! |!ped! [A,,G,]8!ped-up! |!ped! B,,2 F,2 A,4!ped-up! | %19
!ped! B,,2 B,2 A,2 A,,2!ped-up! |!ped! [G,,D,]8!ped-up! |!ped! [A,,G,]8!ped-up! | %22
!ped! B,,2 F,2 [D,A,]4 | B,,,4 [A,,E,F,]4!ped-up! |!ped! G,,2 D,2 B,4!ped-up! | %25
!ped! [A,,E,]2 G,2 C4!ped-up! |!ped! B,,2 F,2 D4!ped-up! |!ped! B,,2 B,2 A,2 [A,,F,]2!ped-up! | %28
!ped! G,,2 D,2 B,4!ped-up! |!ped! [A,,E,]2 G,2 C4!ped-up! |!ped! B,,2 F,2 [A,D]4-!ped-up! | %31
 [A,D]2!ped! [B,,,B,,]2 C,2 D,2!ped-up! | B,A,B,A,- A, B,2 [A,,E,]- | [A,,E,]A,B,A,- A,B,A,G, | %34
 (E,,2 B,,E,- E, F,2 [E,,B,,]- | [E,,B,,]3 E,- E,2 F,G,) | [A,,E,]2 A,_C- C B,2 B,- | %37
 B,A,B,A,- A,B,A,G, | [=G,,E,]6 z [F,,E,]- | [F,,E,]3 F,,,- F,,,4 | G,,,2 D,2 B,4 | A,,,2 G,2 C4 | %42
 B,,,2 F,2 [A,D]4 | B,,2 [B,F]2 A,4 | G,,2 D,2 B,4 | A,,2 G,2 C4 | B,,2 F,2 [A,D]4- | %47
 [A,D]4 [A,CDF]4 | [G,DG]2 [G,DG]2 [G,DG]2 [G,DG]2 | [A,EA]2 [A,EA]2 [A,EA]2 [A,EA]2 | %50
 [B,FA]2 [B,FA]2 [B,FA]2 [B,FA]2 | [B,FB]2 [B,FB]2 [CFA]2 [CFA]2 | %52
 [=G,E]2 [G,E]2 [G,B,E]2 [G,B,E]2 | [G,A,E]2 [G,A,E]2 [G,A,CE]2 [G,A,CE]2 | %54
 [F,A,CD]2 [F,A,CD]2 [E,=G,B,D]2 [E,G,B,D]2 | [A,,E,]2 [A,,E,]2 A,,,2 [E,G,]2 | %56
 .[B,,D,F,].[B,,F,].[B,,F,].[B,,F,] .[B,,F,].[B,,F,].[B,,F,].[B,,F,] | %57
 .[A,,B,,F,].[A,,F,].[A,,F,].[A,,F,] .[A,,E,].[A,,E,].[A,,E,].[A,,E,] | %58
 .[G,,A,,E,].[G,,E,].[G,,E,].[G,,E,] .[G,,E,].[G,,E,].[G,,E,].[G,,E,] | %59
 .[F,,B,,D,].[F,,B,,D,].[F,,B,,D,].[F,,B,,D,] [F,,B,,D,]2 [F,,A,,C,]2 | %60
 .[B,,D,F,].[B,,F,].[B,,F,].[B,,F,] .[B,,F,].[B,,F,].[B,,F,].[B,,F,] | %61
 .[A,,B,,F,].[A,,F,].[A,,F,].[A,,F,] [A,,C,E,]2 [F,,B,,D,]2 | %62
 .[B,,D,A,].[B,,A,].[B,,A,].[B,,A,] .[B,,A,].[B,,A,] [C,E,G,C]2 | %63
 .[C,E,G,C].[E,G,C].[E,G,C].[E,G,C] [A,,F,]2 [B,,E,G,]2 | %64
 G,,[D,F,B,][D,F,B,][D,F,B,] [D,F,B,][D,F,B,][D,F,B,][D,F,B,] | %65
 A,,[E,G,C][E,G,C][E,G,C] [E,G,C][E,G,C][E,G,C][E,G,C] | %66
 C,[F,A,B,][F,A,B,][F,A,B,] [F,A,D][F,A,D] [F,A,D][F,A,D]/D/ | %67
 B,,[B,,F,A,][B,,F,A,][B,,F,A,] [C,F,A,][C,F,A,][C,F,A,][C,F,A,] | %68
 G,,[D,F,B,][D,F,B,][D,F,B,] [D,F,B,][D,F,B,] [D,F,B,][D,F,B,]/B,/ | %69
 A,,[E,G,C][E,G,C][E,G,C] [E,G,C][E,G,C][E,G,C][E,G,C] | %70
 B,,[F,A,D][F,A,D][F,A,D] [F,A,D][F,A,D] [F,A,D][F,A,D]/D/ | %71
 B,,[B,,F,A,][B,,F,A,][B,,F,A,] [A,,F,A,][A,,F,A,][A,,F,A,][A,,F,A,] | %72
 G,,[D,B,][D,B,][D,B,] [D,B,][D,B,] [D,B,][D,B,]/B,/ | %73
 A,,[E,G,C][E,G,C][E,G,C] [E,G,C][E,G,C][E,G,C][E,G,C] | %74
 B,,[F,A,B,][F,A,B,][F,A,B,] [F,A,D][F,A,D] [F,A,D][F,A,D]/D/ | %75
 B,,[B,,F,A,][B,,F,A,][B,,F,A,] [A,,F,A,][A,,F,A,][A,,F,A,][A,,F,A,] | %76
 G,,[D,F,B,][D,F,B,][D,F,B,] [D,F,B,][D,F,B,] [D,F,B,][D,F,B,]/B,/ | %77
 A,,[E,G,C][E,G,C][E,G,C] [E,G,C][E,G,C][E,G,C][E,G,C] | %78
 B,,[F,A,D][F,A,D][F,A,D] [F,A,D][F,A,D][F,A,D][F,A,D] | %79
 [B,,F,A,][B,,F,A,][B,,F,A,][B,,F,A,] [A,,F,A,][A,,F,A,][A,,F,A,][A,,F,A,] | %80
 G,,[D,F,B,][D,F,B,][D,F,B,] [D,F,B,][D,F,B,][D,F,B,][D,F,B,] | %81
 A,,[E,G,C][E,G,C][E,G,C] [E,G,C][E,G,C][E,G,C][E,G,C] | %82
 B,,[F,A,D][F,A,D][F,A,D] [F,A,D][F,A,D] [F,A,D][F,A,D]/D/ | %83
 [B,,F,A,][B,,F,A,][B,,F,A,][B,,F,A,] [A,,F,A,][A,,F,A,][A,,F,A,][A,,F,A,] | =G,,E,B,E, B,E,G,,E, | %85
 G,,E,B,E, CE,G,,E, | F,,D,A,D, E,,B,, =G,2 | A,,E, A,2 A,,,A,, G,2 | !///![G,,,G,,]8- | %89
 !///![G,,,G,,]8 | !///![G,,,G,,]8- | !///![G,,,G,,]8 | !///![G,,,G,,]8- | !///![G,,,G,,]8 | %94
 !///![G,,,G,,]4- [G,,,G,,]4 |] %95
V:3
 x12 | x12 | x12 | x12 | x12 | x12 | x12 | x12 |!8va(! x12 | x12 | x12 | x12 | x12 | x12 | x12 | %15
 x12!8va)! |[M:4/4] x8 | x8 | x8 | x8 | x8 | x8 | x8 | x8 | x8 | x8 | x8 | x8 | x8 | x8 | x8 | x8 | %32
 x8 | x8 | x8 | x8 | x8 | x8 | x8 | x8 |!8va(! x8 | x8 | x8 | x8 | x8 | x8 | x8!8va)! | x8 | x8 | %49
 x8 | x8 | x8 | x8 | x8 | x8 | x8 | x8 | x8 | x8 | x8 | x8 | x8 | x8 | x8 | x8 | x8 | x8 | x8 | %68
 x8 | x8 | x8 |!8va(! x8 | x8 | x8 | x8 | x8 | x8 | x8 | x8 | x8!8va)! | x8 | x8 | x8 | x8 | x8 | %85
 x8 | x8 | x8 | x8 | x4 x2 F,2 | x8 | x8 |!8va(! x8 | x8 | x8!8va)! |] %95

